assets/img/infinity.svg

<svg fill="none" height="45" viewBox="0 0 97 45" width="97" xmlns="http://www.w3.org/2000/svg"><path d="m73.9294 45.0004c-5.9142.0163-11.5937-2.3122-15.7944-6.4755l-27.1925-24.2503-.1084-.1082c-1.6482-1.6483-3.7483-2.7708-6.0345-3.2255-2.2862-.4548-4.656-.2214-6.8095.6706-2.1536.8921-3.9943 2.4027-5.2894 4.3408-1.295 1.9382-1.9863 4.2169-1.9863 6.5479s.6913 4.6097 1.9863 6.5479c1.2951 1.9382 3.1358 3.4488 5.2894 4.3408 2.1535.8921 4.5233 1.1254 6.8095.6707 2.2862-.4548 4.3863-1.5773 6.0345-3.2256.4975-.4975 1.0881-.8921 1.7381-1.1613.6499-.2692 1.3466-.4078 2.0501-.4078s1.4001.1386 2.0501.4078 1.2405.6638 1.738 1.1613.8921 1.088 1.1613 1.738.4078 1.3466.4078 2.0501-.1386 1.4002-.4078 2.0501c-.2692.65-.6638 1.2406-1.1613 1.738-3.1418 3.1419-7.1435 5.2832-11.5005 6.154s-8.8743.4321-12.9824-1.2608c-4.10804-1.6929-7.62292-4.5641-10.10146-8.2518-2.47855-3.6876-3.8097924-8.0266-3.82589222-12.4697-.01609978-4.4432 1.28366222-8.7917 3.73542222-12.4972 2.45176-3.70552 5.94573-6.60219 10.04143-8.32479 4.0957-1.7226095 8.6097-2.194031 12.9729-1.35483 4.3632.8392 8.3803 2.95145 11.5448 6.07044l27.1927 24.25028.1083.1082c1.6482 1.6483 3.7483 2.7708 6.0345 3.2256 2.2862.4547 4.656.2214 6.8095-.6707 2.1536-.892 3.9943-2.4026 5.2894-4.3408 1.295-1.9382 1.9863-4.2169 1.9863-6.5479s-.6913-4.6097-1.9863-6.5479c-1.2951-1.9381-3.1358-3.4487-5.2894-4.3408-2.1535-.892-4.5233-1.1254-6.8095-.6706-2.2862.4547-4.3863 1.5772-6.0345 3.2255-1.0047 1.0047-2.3674 1.5691-3.7882 1.5691s-2.7834-.5644-3.7881-1.5691c-1.0047-1.0046-1.5691-2.3673-1.5691-3.7881 0-1.42081.5644-2.78344 1.5691-3.78811 2.6164-2.61643 5.8377-4.54722 9.3786-5.621329 3.5408-1.074111 7.292-1.258396 10.921-.536527 3.6291.721866 7.0242 2.327606 9.8845 4.674976 2.8602 2.34738 5.0975 5.36389 6.5135 8.78249 1.416 3.4185 1.967 7.1335 1.6043 10.8158-.3626 3.6824-1.6279 7.2185-3.6836 10.2951s-4.8384 5.5987-8.1017 7.343c-3.2633 1.7442-6.9064 2.6567-10.6066 2.6567z" fill="#3a3a3a"/></svg>

<svg width="97" height="45" viewBox="0 0 97 45" fill="none" xmlns="http://www.w3.org/2000/svg">
<path d="M73.9294 45.0004C68.0152 45.0167 62.3357 42.6882 58.135 38.5249L30.9425 14.2746L30.8341 14.1664C29.1859 12.5181 27.0858 11.3956 24.7996 10.9409C22.5134 10.4861 20.1436 10.7195 17.9901 11.6115C15.8365 12.5036 13.9958 14.0142 12.7007 15.9523C11.4057 17.8905 10.7144 20.1692 10.7144 22.5002C10.7144 24.8312 11.4057 27.1099 12.7007 29.0481C13.9958 30.9863 15.8365 32.4969 17.9901 33.3889C20.1436 34.281 22.5134 34.5143 24.7996 34.0596C27.0858 33.6048 29.1859 32.4823 30.8341 30.834C31.3316 30.3365 31.9222 29.9419 32.5722 29.6727C33.2221 29.4035 33.9188 29.2649 34.6223 29.2649C35.3258 29.2649 36.0224 29.4035 36.6724 29.6727C37.3224 29.9419 37.9129 30.3365 38.4104 30.834C38.9079 31.3315 39.3025 31.922 39.5717 32.572C39.8409 33.222 39.9795 33.9186 39.9795 34.6221C39.9795 35.3256 39.8409 36.0223 39.5717 36.6722C39.3025 37.3222 38.9079 37.9128 38.4104 38.4102C35.2686 41.5521 31.2669 43.6934 26.9099 44.5642C22.5529 45.435 18.0356 44.9963 13.9275 43.3034C9.81946 41.6105 6.30458 38.7393 3.82604 35.0516C1.34749 31.364 0.0162476 27.025 0.000147775 22.5819C-0.015952 18.1387 1.28381 13.7902 3.73557 10.0847C6.18733 6.37918 9.6813 3.48251 13.777 1.75991C17.8727 0.0373005 22.3867 -0.434121 26.7499 0.40508C31.1131 1.24428 35.1302 3.35653 38.2947 6.47552L65.4874 30.7258L65.5957 30.834C67.2439 32.4823 69.344 33.6048 71.6302 34.0596C73.9164 34.5143 76.2862 34.281 78.4397 33.3889C80.5933 32.4969 82.434 30.9863 83.7291 29.0481C85.0241 27.1099 85.7154 24.8312 85.7154 22.5002C85.7154 20.1692 85.0241 17.8905 83.7291 15.9523C82.434 14.0142 80.5933 12.5036 78.4397 11.6115C76.2862 10.7195 73.9164 10.4861 71.6302 10.9409C69.344 11.3956 67.2439 12.5181 65.5957 14.1664C64.591 15.1711 63.2283 15.7355 61.8075 15.7355C60.3867 15.7355 59.0241 15.1711 58.0194 14.1664C57.0147 13.1618 56.4503 11.7991 56.4503 10.3783C56.4503 8.95749 57.0147 7.59486 58.0194 6.59019C60.6358 3.97376 63.8571 2.04297 67.398 0.968861C70.9388 -0.10525 74.69 -0.289535 78.319 0.432334C81.9481 1.1542 85.3432 2.75994 88.2035 5.10731C91.0637 7.45469 93.301 10.4712 94.717 13.8898C96.133 17.3083 96.684 21.0233 96.3213 24.7056C95.9587 28.388 94.6934 31.9241 92.6377 35.0007C90.582 38.0773 87.7993 40.5994 84.536 42.3437C81.2727 44.0879 77.6296 45.0004 73.9294 45.0004V45.0004Z" fill="#3A3A3A"/>
</svg>
